polaris-icons/icons/new-icons/TransferInMajor.svg

<svg width="20" height="20" viewBox="0 0 20 20" fill="none" xmlns="http://www.w3.org/2000/svg">
<path fill-rule="evenodd" clip-rule="evenodd" d="M16.5 4.25C16.5 3.83579 16.1642 3.5 15.75 3.5C15.3358 3.5 15 3.83579 15 4.25V15.75C15 16.1642 15.3358 16.5 15.75 16.5C16.1642 16.5 16.5 16.1642 16.5 15.75V4.25ZM4.25 10.75C3.83579 10.75 3.5 10.4142 3.5 10C3.5 9.58579 3.83579 9.25 4.25 9.25H11.1893L9.46967 7.53033C9.17678 7.23744 9.17678 6.76256 9.46967 6.46967C9.76256 6.17678 10.2374 6.17678 10.5303 6.46967L13.5303 9.46967C13.8232 9.76256 13.8232 10.2374 13.5303 10.5303L10.5303 13.5303C10.2374 13.8232 9.76256 13.8232 9.46967 13.5303C9.17678 13.2374 9.17678 12.7626 9.46967 12.4697L11.1893 10.75L4.25 10.75Z" fill="#4A4A4A"/>
</svg>

<svg viewBox="0 0 20 20" xmlns="http://www.w3.org/2000/svg"><path fill-rule="evenodd" d="M16.5 4.25a.75.75 0 0 0-1.5 0v11.5a.75.75 0 0 0 1.5 0v-11.5Zm-12.25 6.5a.75.75 0 0 1 0-1.5h6.94l-1.72-1.72a.75.75 0 0 1 1.06-1.06l3 3a.75.75 0 0 1 0 1.06l-3 3a.75.75 0 1 1-1.06-1.06l1.72-1.72h-6.94Z" fill="#5C5F62"/></svg>
